build/svg/cmd/sc_flowchartshapes.flowchart-direct-access-storage.svg

<?xml version="1.0" encoding="UTF-8" standalone="no"?>
<svg
   xmlns:dc="http://purl.org/dc/elements/1.1/"
   xmlns:cc="http://creativecommons.org/ns#"
   xmlns:rdf="http://www.w3.org/1999/02/22-rdf-syntax-ns#"
   xmlns:svg="http://www.w3.org/2000/svg"
   xmlns="http://www.w3.org/2000/svg"
   xmlns:sodipodi="http://sodipodi.sourceforge.net/DTD/sodipodi-0.dtd"
   xmlns:inkscape="http://www.inkscape.org/namespaces/inkscape"
   viewBox="0 0 16 16"
   version="1.1"
   id="svg6"
   sodipodi:docname="sc_flowchartshapes.flowchart-direct-access-storage.svg"
   inkscape:version="0.92.4 (5da689c313, 2019-01-14)">
  <metadata
     id="metadata12">
    <rdf:RDF>
      <cc:Work
         rdf:about="">
        <dc:format>image/svg+xml</dc:format>
        <dc:type
           rdf:resource="http://purl.org/dc/dcmitype/StillImage" />
      </cc:Work>
    </rdf:RDF>
  </metadata>
  <defs
     id="defs10" />
  <sodipodi:namedview
     pagecolor="#ffffff"
     bordercolor="#666666"
     borderopacity="1"
     objecttolerance="10"
     gridtolerance="10"
     guidetolerance="10"
     inkscape:pageopacity="0"
     inkscape:pageshadow="2"
     inkscape:window-width="1920"
     inkscape:window-height="1011"
     id="namedview8"
     showgrid="false"
     inkscape:zoom="14.75"
     inkscape:cx="0.57627119"
     inkscape:cy="7.6949153"
     inkscape:window-x="0"
     inkscape:window-y="32"
     inkscape:window-maximized="1"
     inkscape:current-layer="svg6" />
  <path
     style="fill:#000000;fill-opacity:1;stroke:#000000;opacity:0.6;stroke-width:2;stroke-miterlimit:4;stroke-dasharray:none"
     d="M 6 2 C 3.7908614 2 2 4.6862985 2 8 C 2 11.313702 3.7908614 14 6 14 L 10 14 A 3.9999999 5.9999878 0 0 0 14 8 A 3.9999999 5.9999878 0 0 0 10 2 L 6 2 z M 9.2050781 2.1191406 A 3.9999999 5.9999878 0 0 0 8.8183594 2.2675781 A 3.9999999 5.9999878 0 0 0 8.09375 2.7246094 C 8.3226652 2.5380778 8.565211 2.3848811 8.8183594 2.2675781 C 8.9449147 2.2089354 9.0735009 2.1589295 9.2050781 2.1191406 z M 8.0175781 2.7949219 A 3.9999999 5.9999878 0 0 0 7.7519531 3.0390625 C 7.8374978 2.9516848 7.9274559 2.8723437 8.0175781 2.7949219 z M 7.203125 3.71875 A 3.9999999 5.9999878 0 0 0 7.1601562 3.7792969 C 7.1740803 3.7582173 7.1889952 3.7395195 7.203125 3.71875 z M 6.7207031 4.5761719 A 3.9999999 5.9999878 0 0 0 6.6679688 4.6894531 C 6.6851094 4.6506952 6.7029828 4.6142907 6.7207031 4.5761719 z M 6.3476562 5.5722656 A 3.9999999 5.9999878 0 0 0 6.3027344 5.7246094 C 6.3169201 5.6727893 6.3325394 5.6233465 6.3476562 5.5722656 z M 6.0996094 6.703125 A 3.9999999 5.9999878 0 0 0 6.078125 6.8515625 C 6.0846182 6.8014063 6.0922888 6.7528267 6.0996094 6.703125 z M 6.3046875 10.287109 A 3.9999999 5.9999878 0 0 0 6.3320312 10.384766 C 6.3226111 10.352212 6.313732 10.319959 6.3046875 10.287109 z M 6.6679688 11.310547 A 3.9999999 5.9999878 0 0 0 6.6914062 11.369141 C 6.6828277 11.350216 6.6764063 11.329626 6.6679688 11.310547 z M 7.1523438 12.207031 A 3.9999999 5.9999878 0 0 0 7.1816406 12.253906 C 7.1714885 12.238772 7.1623877 12.222327 7.1523438 12.207031 z M 7.7265625 12.929688 A 3.9999999 5.9999878 0 0 0 7.7988281 13.005859 C 7.7742794 12.981522 7.7507284 12.95481 7.7265625 12.929688 z M 7.9648438 13.158203 A 3.9999999 5.9999878 0 0 0 8.1425781 13.3125 C 8.0817751 13.264569 8.0237498 13.210616 7.9648438 13.158203 z M 8.2832031 13.412109 A 3.9999999 5.9999878 0 0 0 8.5214844 13.572266 C 8.4402168 13.523683 8.3617452 13.468302 8.2832031 13.412109 z M 8.6269531 13.628906 A 3.9999999 5.9999878 0 0 0 8.8886719 13.761719 C 8.7994847 13.723075 8.7134595 13.676434 8.6269531 13.628906 z M 9.015625 13.810547 A 3.9999999 5.9999878 0 0 0 9.2792969 13.898438 C 9.1901559 13.874079 9.1025994 13.843611 9.015625 13.810547 z M 9.4257812 13.931641 A 3.9999999 5.9999878 0 0 0 9.6601562 13.974609 C 9.5812371 13.964609 9.5033285 13.948415 9.4257812 13.931641 z "
     id="path822" />
  <path
     d="m10 2a3.9999999 5.9999878 0 0 0 -4 6 3.9999999 5.9999878 0 0 0 4 6 3.9999999 5.9999878 0 0 0 4-6 3.9999999 5.9999878 0 0 0 -4-6z"
     fill="#b3b3b3"
     id="path2"
     style="fill:#ffffff;fill-opacity:1" />
  <path
     d="m6 2c-2.2091386 0-4 2.6862985-4 6 0 3.313702 1.7908614 6 4 6h4c-2.2091387 0-4-2.686298-4-6 0-3.3137015 1.7908613-6 4-6z"
     fill="#232629"
     id="path4"
     style="fill:#6d6d6d;fill-opacity:1" />
</svg>

<svg xmlns="http://www.w3.org/2000/svg" viewBox="0 0 16 16"><path d="M6 2C3.79 2 2 4.686 2 8s1.79 6 4 6h4a4 6 0 004-6 4 6 0 00-4-6H6zm3.205.12a4 6 0 00-.387.148 4 6 0 00-.724.457c.229-.187.471-.34.724-.457.127-.06.256-.11.387-.149zm-1.187.675a4 6 0 00-.266.244c.085-.087.175-.167.266-.244zm-.815.924a4 6 0 00-.043.06l.043-.06zm-.482.857a4 6 0 00-.053.113l.053-.113zm-.373.996a4 6 0 00-.045.153c.014-.052.03-.102.045-.153zM6.1 6.703a4 6 0 00-.022.149l.022-.149zm.205 3.584a4 6 0 00.027.098l-.027-.098zm.363 1.024a4 6 0 00.023.058l-.023-.058zm.484.896a4 6 0 00.03.047l-.03-.047zm.575.723a4 6 0 00.072.076c-.025-.024-.048-.051-.072-.076zm.238.228a4 6 0 00.178.155c-.061-.048-.12-.102-.178-.155zm.318.254a4 6 0 00.238.16 3.508 3.508 0 01-.238-.16zm.344.217a4 6 0 00.262.133 3.145 3.145 0 01-.262-.133zm.389.182a4 6 0 00.263.087 2.88 2.88 0 01-.263-.087zm.41.12a4 6 0 00.234.044 2.74 2.74 0 01-.234-.043z" stroke="#000" opacity=".6" stroke-width="2"/><path d="M10 2a4 6 0 00-4 6 4 6 0 004 6 4 6 0 004-6 4 6 0 00-4-6z" fill="#fff"/><path d="M6 2C3.79 2 2 4.686 2 8s1.79 6 4 6h4c-2.21 0-4-2.686-4-6s1.79-6 4-6z" fill="#6d6d6d"/></svg>
